icons/file_type_t4tt.svg

<svg xmlns="http://www.w3.org/2000/svg" viewBox="0 0 32 32"><path d="M19.545 6.035H13.27V24H8.3V6.035H2.055V2h17.49ZM27.567 10v12.608h2.4V25.9h-2.4V30h-4.016v-4.1h-8.717v-3.445q1.158-1.3 2.4-2.838t2.4-3.173q1.158-1.632 2.155-3.285A32.925 32.925 0 0 0 23.481 10Zm-8.786 12.608h4.77v-6.987q-.488.907-1.06 1.834t-1.2 1.827q-.628.9-1.269 1.743t-1.241 1.583Z" style="fill:#1e88e5"/></svg>

<svg xmlns="http://www.w3.org/2000/svg" viewBox="0 0 32 32"><title>file_type_t4tt</title><path d="M19.545,6.035H13.27V24H8.3V6.035H2.055V2h17.49Z" style="fill:#1e88e5"/><path d="M27.567,10V22.608h2.4V25.9h-2.4V30H23.551V25.9H14.834V22.455q1.158-1.3,2.4-2.838t2.4-3.173q1.158-1.632,2.155-3.285A32.925,32.925,0,0,0,23.481,10ZM18.781,22.608h4.77V15.621q-.488.907-1.06,1.834t-1.2,1.827q-.628.9-1.269,1.743T18.781,22.608Z" style="fill:#1e88e5"/></svg>
